svgs/thin/mug-marshmallows.svg

<svg xmlns="http://www.w3.org/2000/svg" viewBox="0 0 512 512"><!--! Font Awesome Pro 6.6.0 by @fontawesome - https://fontawesome.com License - https://fontawesome.com/license (Commercial License) Copyright 2024 Fonticons, Inc. --><path d="M203.5 40.6L191.9 52.2C187.2 49.5 181.8 48 176 48L80 48C62.3 48 48 62.3 48 80l0 48-16 0 0-48c0-26.5 21.5-48 48-48l96 0c10.2 0 19.7 3.2 27.5 8.6zM360 128l-16 0c0-.3 0-.6 0-.9l0-6.3c0-6.4-2.5-12.5-7-17L287.5 54.4c-4.1-4.1-9.7-6.4-15.5-6.4s-11.4 2.3-15.5 6.4L207 103.9c-4.5 4.5-7 10.6-7 17l0 5.2c0 .6 0 1.3 .1 1.9l-16 0c0-.6 0-1.3 0-1.9l0-5.2c0-10.6 4.2-20.8 11.7-28.3l49.5-49.5C252.3 36 261.9 32 272 32s19.7 4 26.8 11.1l49.5 49.5c7.5 7.5 11.7 17.7 11.7 28.3l0 6.3 0 .9zM176 176l0 72c0 4.4-3.6 8-8 8s-8-3.6-8-8l0-72-48 0 0 104c0 4.4-3.6 8-8 8s-8-3.6-8-8l0-104-64 0c-8.8 0-16 7.2-16 16l0 192c0 44.2 35.8 80 80 80l192 0c44.2 0 80-35.8 80-80l0-208-24 0-168 0zm208 0l0 176 24 0c48.6 0 88-39.4 88-88s-39.4-88-88-88l-24 0zm0 192l0 16c0 53-43 96-96 96L96 480c-53 0-96-43-96-96L0 192c0-17.7 14.3-32 32-32l312 0 24 0 16 0 24 0c57.4 0 104 46.6 104 104s-46.6 104-104 104l-24 0z"/></svg>

<svg xmlns="http://www.w3.org/2000/svg" viewBox="0 0 512 512"><!--! Font Awesome Pro 6.5.2 by @fontawesome - https://fontawesome.com License - https://fontawesome.com/license (Commercial License) Copyright 2024 Fonticons, Inc. --><path d="M203.5 40.6L191.9 52.2C187.2 49.5 181.8 48 176 48H80C62.3 48 48 62.3 48 80v48H32V80c0-26.5 21.5-48 48-48h96c10.2 0 19.7 3.2 27.5 8.6zM360 128H344c0-.3 0-.6 0-.9v-6.3c0-6.4-2.5-12.5-7-17L287.5 54.4c-4.1-4.1-9.7-6.4-15.5-6.4s-11.4 2.3-15.5 6.4L207 103.9c-4.5 4.5-7 10.6-7 17v5.2c0 .6 0 1.3 .1 1.9H184c0-.6 0-1.3 0-1.9v-5.2c0-10.6 4.2-20.8 11.7-28.3l49.5-49.5C252.3 36 261.9 32 272 32s19.7 4 26.8 11.1l49.5 49.5c7.5 7.5 11.7 17.7 11.7 28.3v6.3l0 .9zM176 176v72c0 4.4-3.6 8-8 8s-8-3.6-8-8V176H112V280c0 4.4-3.6 8-8 8s-8-3.6-8-8V176H32c-8.8 0-16 7.2-16 16V384c0 44.2 35.8 80 80 80H288c44.2 0 80-35.8 80-80V176H344 176zm208 0V352h24c48.6 0 88-39.4 88-88s-39.4-88-88-88H384zm0 192v16c0 53-43 96-96 96H96c-53 0-96-43-96-96V192c0-17.7 14.3-32 32-32H344h24 16 24c57.4 0 104 46.6 104 104s-46.6 104-104 104H384z"/></svg>
